public/favicon.svg

<svg width="32" height="32" viewBox="0 0 32 32" fill="none" xmlns="http://www.w3.org/2000/svg">
<g clip-path="url(#clip0_2306_222)">
<rect width="32" height="32" fill="#191919"/>
<path d="M32.5 -7H39.5515V38.2874H3L32.5 -7Z" fill="#610002"/>
<path d="M-8 -7H32.5L3 38.5H-8L-8 -7Z" fill="#EE3434"/>
<path d="M21.4577 23.2365C21.1543 22.9222 20.7642 22.7705 20.2874 22.7705C19.8106 22.7705 19.453 22.9222 19.1387 23.2365C18.8353 23.5399 18.6836 23.9191 18.6836 24.3634C18.6836 24.8077 18.8353 25.1978 19.1387 25.5013C19.4421 25.8047 19.8322 25.9672 20.2982 25.9672C20.7642 25.9672 21.1543 25.8155 21.4577 25.5013C21.7611 25.187 21.9237 24.8077 21.9237 24.3634C21.9237 23.9191 21.772 23.5399 21.4577 23.2365ZM21.1868 25.2629C20.9592 25.4904 20.6666 25.6096 20.2982 25.6096C19.9298 25.6096 19.648 25.4904 19.4205 25.2629C19.1929 25.0245 19.0737 24.7319 19.0737 24.3743C19.0737 24.0167 19.1821 23.7241 19.4205 23.4965C19.648 23.269 19.9406 23.1498 20.2874 23.1498C20.6341 23.1498 20.9592 23.269 21.1868 23.4965C21.4144 23.7241 21.5336 24.0167 21.5336 24.3743C21.5336 24.7319 21.4252 25.0353 21.1976 25.2737L21.1868 25.2629Z" fill="white"/>
<path d="M20.9695 23.9624C20.9695 23.8432 20.9261 23.7456 20.8286 23.6698C20.7419 23.5939 20.6119 23.5506 20.4493 23.5506H19.6799V25.1869H20.0484V24.645H20.3409C20.5035 24.645 20.5902 24.7209 20.5902 24.8618V25.1869H20.9586V24.7426C20.9586 24.6342 20.9261 24.5367 20.8503 24.45C20.7744 24.3633 20.6552 24.32 20.4927 24.32C20.8069 24.32 20.9695 24.2008 20.9695 23.9515V23.9624ZM20.5143 24.2549C20.471 24.2983 20.4168 24.32 20.3301 24.32H20.0484V23.854H20.3301C20.406 23.854 20.471 23.8757 20.5143 23.919C20.5577 23.9624 20.5793 24.0165 20.5793 24.0816C20.5793 24.1466 20.5577 24.2008 20.5143 24.2441V24.2549Z" fill="white"/>
<path d="M20.4687 8.62365C19.3565 7.54471 17.9086 7 16.1774 7H9.19995V25.541H12.1168V18.6484H16.1878C17.9086 18.6484 19.346 18.0827 20.4897 16.9723C21.6229 15.862 22.2 14.4373 22.2 12.7613C22.2 11.0853 21.6229 9.69211 20.4897 8.62365H20.4687ZM18.3073 15.0659C17.6987 15.6525 16.9118 15.9562 15.9675 15.9562H12.1168V9.66068H15.978C16.9223 9.66068 17.7092 9.95399 18.3178 10.5511C18.9263 11.1167 19.2306 11.8605 19.2306 12.7509C19.2306 13.6412 18.9263 14.4583 18.3178 15.0554L18.3073 15.0659Z" fill="white"/>
</g>
<defs>
<clipPath id="clip0_2306_222">
<rect width="32" height="32" fill="white"/>
</clipPath>
</defs>
</svg>

<svg version="1.2" xmlns="http://www.w3.org/2000/svg" viewBox="0 0 32 32" width="32" height="32"><defs><clipPath clipPathUnits="userSpaceOnUse" id="cp1"><path d="m0 0h32v32h-32z"/></clipPath><image  width="41" height="46" id="img1" href="data:image/png;base64,iVBORw0KGgoAAAANSUhEUgAAACkAAAAuCAMAAACCu8B8AAAAAXNSR0IB2cksfwAAADlQTFRF7jQ07jQ07jQ07jQ0AAAA7jQ07jQ07jQ07jQ07jQ07jQ07jQ02+LtTW+k7jQ07jQ07jQ07jQ07jQ0RwCJnAAAABN0Uk5T//wxiADaBj6Q5AxM//+YUKiAFNHgOTIAAACySURBVHicrdTdCsIwDAXgBHEqytT3f0tRh+LGdP61aZIdaHpVyEdvmnOYsMPMoFygcskDJrnpCZPrB2Fyw3dQbm+UyJ0jX6iLlZNB5JuEyo+Yl18QKH/zOPn/7BmZbEWUTBfNldlGxsh8yR0p0hAhZcBMWSSxXpbhNqTSArVSK5ZKqXaVJvVSq5JGT5bSKtRODJ7Nb0j5xKq3oJDt1YS5nJofkvuLDTN5ODuQ+JjcT54cAbFzLOX7LtpDAAAAAElFTkSuQmCC"/></defs><style>.a{fill:#191919}.b{fill:#610002}.c{fill:#fff}</style><g clip-path="url(#cp1)"><path fill-rule="evenodd" class="a" d="m0 0h32v32h-32z"/><path class="b" d="m32.5-7h7.1v45.3h-36.6z"/><use  href="#img1" x="-8" y="-7"/><path class="c" d="m21.5 23.2q-0.5-0.4-1.2-0.4c-0.5 0-0.8 0.1-1.2 0.4q-0.4 0.5-0.4 1.2 0 0.6 0.4 1.1 0.5 0.5 1.2 0.5 0.7 0 1.2-0.5 0.4-0.5 0.4-1.1 0-0.7-0.4-1.2zm-0.3 2.1q-0.4 0.3-0.9 0.3-0.5 0-0.9-0.3-0.3-0.4-0.3-0.9 0-0.6 0.3-0.9 0.4-0.3 0.9-0.4c0.3 0 0.7 0.2 0.9 0.4q0.3 0.3 0.3 0.9 0 0.5-0.3 0.9z"/><path class="c" d="m21 24q0-0.2-0.2-0.3-0.1-0.1-0.4-0.1h-0.7v1.6h0.3v-0.6h0.3q0.3 0 0.3 0.3v0.3h0.4v-0.5q0-0.1-0.1-0.3-0.2-0.1-0.4-0.1 0.5 0 0.5-0.3zm-0.5 0.2q0 0.1-0.2 0.1h-0.3v-0.5h0.3q0.1 0 0.2 0.1 0.1 0.1 0.1 0.2 0 0.1-0.1 0.1z"/><path class="c" d="m20.5 8.6q-1.7-1.6-4.3-1.6h-7v18.5h2.9v-6.9h4.1q2.6 0 4.3-1.6c1.1-1.1 1.7-2.6 1.7-4.2q0-2.6-1.7-4.2zm-2.2 6.5q-0.9 0.9-2.3 0.9h-3.9v-6.3h3.9q1.4 0 2.3 0.9 1 0.8 1 2.2c0 0.8-0.4 1.7-1 2.3z"/></g></svg>
